actions/16/resource-calendar-child.svg

<svg xmlns="http://www.w3.org/2000/svg" viewBox="0 0 16 16">
  <defs id="defs3051">
    <style type="text/css" id="current-color-scheme">.ColorScheme-Text {color:#fcfcfc;}</style>
  </defs>
 <path style="fill:currentColor;fill-opacity:1;stroke:none" 
     d="m 2,2 c 0,0 0,8 0,10 0,2 2,2 2,2 H 7 V 13 H 4 C 4,13 3,13 3,12 3,11 3,5 3,5 h 10 v 3 h 1 V 2 H 12 V 4 H 10 V 2 H 6 V 4 H 4 V 2 Z M 4,6 V 8 H 6 V 6 Z M 7,6 V 8 H 9 V 6 Z m 3,0 v 2 h 2 V 6 Z M 4,9 v 2 H 6 V 9 Z m 4,0 v 5 h 6 V 9 h -1 v 1 H 12 V 9 h -2 v 1 H 9 V 9 Z m 1,2 h 4 v 2 H 9 Z"
     class="ColorScheme-Text"
     />
</svg>

<svg xmlns="http://www.w3.org/2000/svg" viewBox="0 0 16 16">
  <defs id="defs3051">
    <style type="text/css" id="current-color-scheme">
      .ColorScheme-Text {
        color:#eff0f1;
      }
      </style>
  </defs>
 <path style="fill:currentColor;fill-opacity:1;stroke:none" 
     d="M 2 2 L 2 9 L 2 14 L 3 14 L 7 14 L 7 13 L 3 13 L 3 9 L 3 5 L 13 5 L 13 8 L 14 8 L 14 2 L 12 2 L 12 4 L 10 4 L 10 2 L 6 2 L 6 4 L 4 4 L 4 2 L 2 2 z M 4 6 L 4 8 L 6 8 L 6 6 L 4 6 z M 7 6 L 7 8 L 9 8 L 9 6 L 7 6 z M 10 6 L 10 8 L 12 8 L 12 6 L 10 6 z M 4 9 L 4 11 L 6 11 L 6 9 L 4 9 z M 8 9 L 8 14 L 14 14 L 14 9 L 13 9 L 13 10 L 12 10 L 12 9 L 10 9 L 10 10 L 9 10 L 9 9 L 8 9 z M 9 11 L 13 11 L 13 13 L 9 13 L 9 11 z "
     class="ColorScheme-Text"
     />
</svg>
